X: 13
T: My love has departed
N: Derived from ojibwa13.krn
C: Chippewa Songs ~ 1910
O: Red Wing, Minnesota, U.S.A
N: Chippewa Music by Frances Densmore, 1910
Z: transcribed to **kern format by Paul von Hippel and Daniel T. Shanahan
L: 1/4
M: 2/4
Q: 1/4=108
K: C clef=treble
%%linebreak <none>
[M:2/4]A/> A/B | 
[M:3/4]A3 | 
[M:2/4]AG3// E// | 
[M:3/4]AA2 | 
[M:2/4]E/> E/^F | 
E2 | 
ED3// D// | 
[M:3/4]ED2 | 
[M:2/4]EA | 
[M:3/4]AG2 | 
[M:2/4]GE3// D// | 
[M:3/4]ED2 | 
A,/ D/DC | 
[M:2/4]C3/A,/ | 
[M:3/4]CA,2 | 
[M:3/4]A2B | 
A3 | 
[M:2/4]AB3// E// | 
[M:3/4]AA2 | 
[M:2/4]E/> E/^F | 
E2 | 
E=D3// D// | 
[M:3/4]ED2 | 
[M:2/4]zE | 
[M:3/4]A>AG | 
E>^FE | 
[M:3/4]D>ED | 
[M:2/4]C2 | 
[M:3/4]A,3 | 
[M:2/4]A/> A/B | 
[M:3/4]A3 | 
[M:2/4]AG3// E// | 
[M:3/4]AA2 | 
[M:2/4]E/> E/^F | 
E2 | 
[M:2/4]E=D3// D// | 
[M:3/4]ED2 | 
[M:2/4]EA | 
[M:3/4]AG3/G/ | 
[M:2/4]E/> ^F/E | 
[M:2/4]D2 | 
[M:3/4]A,/ D/DC | 
[M:2/4]CA,/ A,/ | 
[M:3/4]CA,2 |]  



